X:101
T:"St Agnes' Waltz"
C:Waltz composed by Davy Rogers
L:1/8
Q:125
M:3/4
K:A
cd |: e2 ef ec | A2 AB ce | f2 fg fe | fa2f af | e2 ef ec |
A2 AB cd | B4 ^A2 | B3e af | ec2e af | ec2B (3AG=G | FG Ac e=f |
f3^f (3g=gf | ee'2d' c'b | ae2f (3edc | de ga bc' |1 a4 cd :|2 a3d cB |:
AB ce fa | c'4 b2 | (3agf (3e^d=d (3c=cA | G4 =G2 | GB cd ef |
=g4 ^g2 | (3ac'a (3fec (3AGF | E3E FE | DE GB de | g3g ag |
FG AB cd | e3e fe | EG Bc de | c2 =c2 B2 | A3F E2 |1 C3d cB :|2 C4 ||



